polaris-icons/icons/new-icons/PaginationStartMinor.svg

<svg width="20" height="20" viewBox="0 0 20 20" fill="none" xmlns="http://www.w3.org/2000/svg">
<path fill-rule="evenodd" clip-rule="evenodd" d="M6.75 5.75C6.75 5.33579 6.41421 5 6 5C5.58579 5 5.25 5.33579 5.25 5.75V14.25C5.25 14.6642 5.58579 15 6 15C6.41421 15 6.75 14.6642 6.75 14.25V5.75ZM14.5461 6.26403C14.83 5.9624 14.8157 5.48774 14.514 5.20385C14.2124 4.91996 13.7377 4.93435 13.4538 5.23598L9.45385 9.48598C9.18205 9.77477 9.18205 10.2252 9.45385 10.514L13.4538 14.764C13.7377 15.0657 14.2124 15.08 14.514 14.7962C14.8157 14.5123 14.83 14.0376 14.5461 13.736L11.0299 10L14.5461 6.26403Z" fill="#4A4A4A"/>
</svg>

<svg viewBox="0 0 20 20" xmlns="http://www.w3.org/2000/svg"><path fill-rule="evenodd" d="M6.75 5.75a.75.75 0 0 0-1.5 0v8.5a.75.75 0 0 0 1.5 0v-8.5Zm7.796.514a.75.75 0 1 0-1.092-1.028l-4 4.25a.75.75 0 0 0 0 1.028l4 4.25a.75.75 0 1 0 1.092-1.028l-3.516-3.736 3.516-3.736Z" fill="#5C5F62"/></svg>
